img/logotype.svg

<svg width="20" height="22" viewBox="0 0 20 22" fill="none" xmlns="http://www.w3.org/2000/svg">
<path fill-rule="evenodd" clip-rule="evenodd" d="M10.9645 5.4359C10.632 5.4359 10.3089 5.47693 10 5.55416C10.1988 3.76058 10.9148 2.12398 11.9963 0.794922C16.2971 1.30464 19.6332 4.96455 19.6332 9.40293V15.7294C19.4605 15.7391 19.2864 15.744 19.1112 15.744C15.6706 15.744 12.6709 13.8483 11.1028 11.0423H14.9315V9.40293C14.9315 7.212 13.1554 5.4359 10.9645 5.4359Z" fill="white"/>
<path fill-rule="evenodd" clip-rule="evenodd" d="M0.256424 9.95068C0.256424 4.62496 4.57377 0.307617 9.89949 0.307617C12.5623 0.307617 14.9731 1.38695 16.7182 3.132C15.1095 1.52336 12.9351 0.48044 10.5191 0.327242C8.89398 2.12575 7.90441 4.50947 7.90441 7.12431C7.90441 7.31936 7.90991 7.51312 7.92078 7.70545C7.29901 8.25384 6.90681 9.05646 6.90681 9.95068V10.6157H12.8922L8.5214 10.6158C9.94447 14.4968 13.672 17.2661 18.0462 17.2661C18.5546 17.2661 19.0543 17.2287 19.5425 17.1565V21.2563H12.8922V17.2661H6.90681V21.2563H0.256424V13.9409V9.95068Z" fill="white"/>
</svg>

<svg xmlns="http://www.w3.org/2000/svg" width="20" height="22" fill="none"><path fill="#fff" fill-rule="evenodd" d="M10.96 5.44c-.33 0-.65.04-.96.11.2-1.79.91-3.43 2-4.76a8.67 8.67 0 0 1 7.63 8.61v6.33a9.17 9.17 0 0 1-8.53-4.69h3.83V9.4c0-2.19-1.77-3.96-3.97-3.96Z" clip-rule="evenodd"/><path fill="#fff" fill-rule="evenodd" d="M.26 9.95A9.64 9.64 0 0 1 10.52.33a10.1 10.1 0 0 0-2.6 7.38 2.99 2.99 0 0 0-1.01 2.24v.67h5.98-4.37a10.15 10.15 0 0 0 11.02 6.54v4.1H12.9v-4H6.91v4H.26V9.95Z" clip-rule="evenodd"/></svg>
